X:921
T:Polska
T:efter Pelle Fors
R:Polska
O:Vikbolandet, Östergötland
S:efter Pelle Fors
B:Låtar efter Pelle Fors
Z:Björn Ek 2009-01-02
M:3/4
L:1/16
K:G
%
|:G2(gf) g2d2 B2G2|G2gf g2d2 B2G2|G2(AB) (cdcB) A2A2|(DFAF) G8:|
%
|:(DF)AF (DF)AF (DF)AF|D2(GA) (Bc)BA B2G2|(DF)AF (DF)AF (DF)AF|D2(GA) (Bc)BA B2G2|
G2e2 e2f2 f2g2|(gf)ed e2(ef) g4|(ge)ce (ed)Bd dcAF|1D2(FA) G4 G4:|2D2(FA) G4g4|]
%
(:musicend:)

(:music:)
